package/converter/svg/light/sausage.svg

<svg xmlns="http://www.w3.org/2000/svg" viewBox="0 0 512 512"><!-- Font Awesome Pro 6.0.0-alpha2 by @fontawesome - https://fontawesome.com License - https://fontawesome.com/license (Commercial License) --><path d="M416 64C363.066 64 320 107.064 320 160C320 248.225 248.225 320 160 320C107.066 320 64 363.064 64 416C64 468.934 107.066 512 160 512C354.094 512 512 354.094 512 160C512 107.064 468.936 64 416 64ZM160 480C124.625 480 96 451.375 96 416S124.625 352 160 352C265.875 352 352 265.875 352 160C352 124.625 380.625 96 416 96S480 124.625 480 160C480 336.5 336.5 480 160 480ZM400 160C391.125 160 384 167.125 384 176C384 290.75 290.75 384 176 384C167.125 384 160 391.125 160 400S167.125 416 176 416C308.375 416 416 308.375 416 176C416 167.125 408.875 160 400 160ZM400 32H464C472.836 32 480 24.836 480 16C480 7.162 472.836 0 464 0H400C391.164 0 384 7.162 384 16C384 24.836 391.164 32 400 32ZM16 384C7.164 384 0 391.162 0 400V464C0 472.836 7.164 480 16 480S32 472.836 32 464V400C32 391.162 24.836 384 16 384Z"/></svg>

<svg xmlns="http://www.w3.org/2000/svg" viewBox="0 0 512 512"><!--! Font Awesome Pro 6.6.0 by @fontawesome - https://fontawesome.com License - https://fontawesome.com/license (Commercial License) Copyright 2024 Fonticons, Inc. --><path d="M400 0c-8.8 0-16 7.2-16 16s7.2 16 16 16l64 0c8.8 0 16-7.2 16-16s-7.2-16-16-16L400 0zM32 400c0-8.8-7.2-16-16-16s-16 7.2-16 16l0 64c0 8.8 7.2 16 16 16s16-7.2 16-16l0-64zM480 160c0 176.7-143.3 320-320 320c-35.3 0-64-28.7-64-64s28.7-64 64-64c106 0 192-86 192-192c0-35.3 28.7-64 64-64s64 28.7 64 64zm32 0c0-53-43-96-96-96s-96 43-96 96c0 88.4-71.6 160-160 160c-53 0-96 43-96 96s43 96 96 96c194.4 0 352-157.6 352-352zm-112 0c-8.8 0-16 7.2-16 16c0 114.9-93.1 208-208 208c-8.8 0-16 7.2-16 16s7.2 16 16 16c132.5 0 240-107.5 240-240c0-8.8-7.2-16-16-16z"/></svg>
